_includes/icons/color-medal-first-place.svg

<svg fill="#666" height="50" viewBox="0 0 48 48" width="50" xmlns="http://www.w3.org/2000/svg"><path d="m17 4h-7l10 18h7z" fill="#41a571"/><path d="m27 22-.066406-.132812-.070313.132812z" fill="#398e5f"/><path d="m22.828125 14.4375-3.445312 6.421875 1.117187 2.183594 3.484375-6.433594z" fill="#398e5f"/><path d="m31 4-10 18h7l10-18z" fill="#5ec08f"/><path d="m36 33c0 6.628906-5.371094 12-12 12s-12-5.371094-12-12 5.371094-12 12-12 12 5.371094 12 12z" fill="#ffba57"/><path d="m24 23c-5.519531 0-10 4.476563-10 10 0 5.519531 4.480469 10 10 10s10-4.480469 10-10c0-5.523437-4.480469-10-10-10zm-7.984375 10.308594c-.027344.003906-.054687-.011719-.058594-.039063-.003906-.007812-.003906-.011718 0-.019531l.042969-.25.050781.25c.007813.027344-.011718.050781-.035156.058594zm1.214844 3.925781c-.269531.164063-.617188.082031-.785156-.183594-.019532-.035156-.035157-.070312-.050782-.105468l-.171875-.484375c-.097656-.269532.039063-.566407.308594-.660157.234375-.085937.488281.011719.613281.214844l.269532.4375c.164062.265625.082031.617188-.183594.78125zm2.722656 2.703125c-.273437.386719-.808594.476563-1.195312.203125-.027344-.019531-.054688-.039062-.078125-.0625l-.382813-.339844c-.339844-.308593-.367187-.832031-.0625-1.171875.285156-.316406.757813-.363281 1.097656-.125l.417969.296875c.386719.277344.476563.8125.203125 1.199219zm3.488281 1.121094c-.113281.53125-.628906.867187-1.160156.753906-.007812 0-.019531-.003906-.027344-.003906l-.496093-.121094c-.523438-.128906-.84375-.652344-.714844-1.171875.125-.511719.632812-.828125 1.144531-.71875l.5.105469c.53125.109375.867188.628906.753906 1.15625zm-.441406-4.058594v-7.390625l-2 .664063v-1.757813l3.8125-1.515625h.1875v10zm3.246094 4.683594-.496094.121094c-.523437.128906-1.050781-.191407-1.179687-.71875-.128907-.523438.195312-1.050782.71875-1.179688.007812 0 .019531-.003906.027343-.003906l.5-.109375c.523438-.109375 1.039063.222656 1.148438.746094.109375.515625-.210938 1.019531-.71875 1.144531zm3.457031-1.953125-.382812.34375c-.347657.320312-.890625.289062-1.207032-.058594-.316406-.351562-.289062-.894531.0625-1.210937.023438-.023438.050782-.046875.078125-.066407l.417969-.292968c.375-.265625.890625-.175782 1.152344.195312.246094.347656.1875.816406-.121094 1.089844zm2.074219-3.273438-.171875.480469c-.109375.296875-.429688.449219-.726563.339844-.292968-.105469-.445312-.429688-.339843-.722656.015625-.035157.03125-.074219.050781-.105469l.269531-.4375c.148438-.238281.464844-.316406.707031-.167969.207032.132813.292969.390625.210938.613281zm.171875-3.1875c-.003906-.007812-.003906-.015625 0-.019531l.050781-.25.042969.25c.007812.027344-.011719.054688-.039063.058594-.027343.003906-.050781-.015625-.054687-.039063z" fill="#ffe082"/></svg>

<svg xmlns="http://www.w3.org/2000/svg" viewBox="0 0 48 48" width="50" height="50" fill="#666"><path d="M 17 4 L 10 4 L 20 22 L 27 22 Z" fill="#41a571"/><path d="M 27 22 L 26.933594 21.867188 L 26.863281 22 Z" fill="#398e5f"/><path d="M 22.828125 14.4375 L 19.382813 20.859375 L 20.5 23.042969 L 23.984375 16.609375 Z" fill="#398e5f"/><path d="M 31 4 L 21 22 L 28 22 L 38 4 Z" fill="#5ec08f"/><path d="M 36 33 C 36 39.628906 30.628906 45 24 45 C 17.371094 45 12 39.628906 12 33 C 12 26.371094 17.371094 21 24 21 C 30.628906 21 36 26.371094 36 33 Z" fill="#ffba57"/><path d="M 24 23 C 18.480469 23 14 27.476563 14 33 C 14 38.519531 18.480469 43 24 43 C 29.519531 43 34 38.519531 34 33 C 34 27.476563 29.519531 23 24 23 Z M 16.015625 33.308594 C 15.988281 33.3125 15.960938 33.296875 15.957031 33.269531 C 15.953125 33.261719 15.953125 33.257813 15.957031 33.25 L 16 33 L 16.050781 33.25 C 16.058594 33.277344 16.039063 33.300781 16.015625 33.308594 Z M 17.230469 37.234375 C 16.960938 37.398438 16.613281 37.316406 16.445313 37.050781 C 16.425781 37.015625 16.410156 36.980469 16.394531 36.945313 L 16.222656 36.460938 C 16.125 36.191406 16.261719 35.894531 16.53125 35.800781 C 16.765625 35.714844 17.019531 35.8125 17.144531 36.015625 L 17.414063 36.453125 C 17.578125 36.71875 17.496094 37.070313 17.230469 37.234375 Z M 19.953125 39.9375 C 19.679688 40.324219 19.144531 40.414063 18.757813 40.140625 C 18.730469 40.121094 18.703125 40.101563 18.679688 40.078125 L 18.296875 39.738281 C 17.957031 39.429688 17.929688 38.90625 18.234375 38.566406 C 18.519531 38.25 18.992188 38.203125 19.332031 38.441406 L 19.75 38.738281 C 20.136719 39.015625 20.226563 39.550781 19.953125 39.9375 Z M 23.441406 41.058594 C 23.328125 41.589844 22.8125 41.925781 22.28125 41.8125 C 22.273438 41.8125 22.261719 41.808594 22.253906 41.808594 L 21.757813 41.6875 C 21.234375 41.558594 20.914063 41.035156 21.042969 40.515625 C 21.167969 40.003906 21.675781 39.6875 22.1875 39.796875 L 22.6875 39.902344 C 23.21875 40.011719 23.554688 40.53125 23.441406 41.058594 Z M 23 37 L 23 29.609375 L 21 30.273438 L 21 28.515625 L 24.8125 27 L 25 27 L 25 37 Z M 26.246094 41.683594 L 25.75 41.804688 C 25.226563 41.933594 24.699219 41.613281 24.570313 41.085938 C 24.441406 40.5625 24.765625 40.035156 25.289063 39.90625 C 25.296875 39.90625 25.308594 39.902344 25.316406 39.902344 L 25.816406 39.792969 C 26.339844 39.683594 26.855469 40.015625 26.964844 40.539063 C 27.074219 41.054688 26.753906 41.558594 26.246094 41.683594 Z M 29.703125 39.730469 L 29.320313 40.074219 C 28.972656 40.394531 28.429688 40.363281 28.113281 40.015625 C 27.796875 39.664063 27.824219 39.121094 28.175781 38.804688 C 28.199219 38.78125 28.226563 38.757813 28.253906 38.738281 L 28.671875 38.445313 C 29.046875 38.179688 29.5625 38.269531 29.824219 38.640625 C 30.070313 38.988281 30.011719 39.457031 29.703125 39.730469 Z M 31.777344 36.457031 L 31.605469 36.9375 C 31.496094 37.234375 31.175781 37.386719 30.878906 37.277344 C 30.585938 37.171875 30.433594 36.847656 30.539063 36.554688 C 30.554688 36.519531 30.570313 36.480469 30.589844 36.449219 L 30.859375 36.011719 C 31.007813 35.773438 31.324219 35.695313 31.566406 35.84375 C 31.773438 35.976563 31.859375 36.234375 31.777344 36.457031 Z M 31.949219 33.269531 C 31.945313 33.261719 31.945313 33.253906 31.949219 33.25 L 32 33 L 32.042969 33.25 C 32.050781 33.277344 32.03125 33.304688 32.003906 33.308594 C 31.976563 33.3125 31.953125 33.292969 31.949219 33.269531 Z" fill="#ffe082"/></svg>
